X:1
T:Title
%%score 1 2 3 4
L:1/8
M:6/2
K:C
V:1 treble nm="Part_1"
V:2 treble nm="Part_2"
V:3 treble-8 nm="Part_3"
V:4 bass nm="Part_4"
V:1
 z24 | z24 | z24 | z24 | z24 | z24 | z24 | z24 | z24 | g2 f2 e4 d4 c6 d2 e4 | %10
 e2 d2 c4 B4 ^c6 d2 e4 | ^f4 g4 a4 =b8 z4 | g8 z4 f8 e4 | d2 e2 f4 e4 d8 z4 | %14
 g2 f2 e4 d4 c2 B2 A4 ^G4 | A6 B2 ^c4 z12 |[M:9/2] B6 c2 d4 e4 A6 G2 G12 |[M:4/2] z16 | z16 | z16 | %20
 z16 | z16 | z16 | z16 | z16 |[M:6/2] z24 | z24 | z24 | z24 | z24 | z24 | z24 | z24 | z24 | %34
 g2 f2 e4 d4 c6 d2 e4 | e2 d2 c4 B4 ^c6 d2 e4 | ^f4 g4 a4 =b8 z4 | g8 z4 f8 e4 | %38
 d2 e2 f4 e4 d8 z4 | g2 f2 e4 d4 c2 B2 A4 ^G4 | A6 B2 ^c4 z12 |[M:9/2] B6 c2 d4 e4 A6 G2 G12 | %42
[M:4/2] z16 | z16 | z16 | z16 | z16 | z16 | z16 | z16 | z16 | z16 | z16 |[M:4/4] z8 |[M:6/2] z24 | %55
 z24 | z24 | z24 | z24 | z24 | z24 | z24 | z24 | g2 f2 e4 d4 c6 d2 e4 | e2 d2 c4 B4 ^c6 d2 e4 | %65
 ^f4 g4 a4 =b8 z4 | g8 z4 f8 e4 | d2 e2 f4 e4 d8 z4 | g2 f2 e4 d4 c2 B2 A4 ^G4 | A6 B2 ^c4 z12 | %70
[M:9/2] B6 c2 d4 e4 A6 G2 G12 |[M:6/2] z24 | z24 | z24 | z24 | z24 | z24 | z24 |[M:9/2] z24 z12 | %79
[M:4/2] z16 | z16 | z16 | z16 | z16 | z16 |] %85
V:2
 z24 | z24 | z24 | z24 | z24 | z24 | z24 | z24 | d2 c2 B4 A4 G6 A2 B4 | c4 c4 B4 e6 e2 c4 | %10
 c2 B2 A4 G4 A6 B2 ^c4 | d4 e4 f4 g8 z4 | e8 z4 d8 ^c4 | d6 e2 ^c4 d2 c2 B4 A4 | %14
 G8 z4 e2 d2 c4 B4 | ^c6 d2 e4 z12 |[M:9/2] G6 A2 B4 G4 G4 ^F4 G12 |[M:4/2] z16 | z16 | z16 | z16 | %21
 z16 | z16 | z16 | z16 |[M:6/2] z24 | z24 | z24 | z24 | z24 | z24 | z24 | z24 | %33
 d2 c2 B4 A4 G6 A2 B4 | c4 c4 B4 e6 e2 c4 | c2 B2 A4 G4 A6 B2 ^c4 | d4 e4 f4 g8 z4 | e8 z4 d8 ^c4 | %38
 d6 e2 ^c4 d2 c2 B4 A4 | G8 z4 e2 d2 c4 B4 | ^c6 d2 e4 z12 |[M:9/2] G6 A2 B4 G4 G4 ^F4 G12 | %42
[M:4/2] z16 | z16 | z16 | z16 | z16 | z16 | z16 | z16 | z16 | z16 | z16 |[M:4/4] z8 |[M:6/2] z24 | %55
 z24 | z24 | z24 | z24 | z24 | z24 | z24 | d2 c2 B4 A4 G6 A2 B4 | c4 c4 B4 e6 e2 c4 | %64
 c2 B2 A4 G4 A6 B2 ^c4 | d4 e4 f4 g8 z4 | e8 z4 d8 ^c4 | d6 e2 ^c4 d2 c2 B4 A4 | %68
 G8 z4 e2 d2 c4 B4 | ^c6 d2 e4 z12 |[M:9/2] G6 A2 B4 G4 G4 ^F4 G12 |[M:6/2] z24 | z24 | z24 | z24 | %75
 z24 | z24 | z24 |[M:9/2] z24 z12 |[M:4/2] z16 | z16 | z16 | z16 | z16 | z16 |] %85
V:3
 d2 c2 B4 A4 G6 A2 B4 | c4 d4 e4 f6 e2 d4 | e6 d2 c4 d6 c2 B4 | A6 B2 c4 (f2 e2) d4 c4 | %4
w: So- * * nent Ci- tha- ræ,|pul- sen- tur tym- pa- na,|re- so- nent re- so- nent|or- ga- na dul- * * ci-|
 c12 E6 E2 ^F4 | ^G6 G2 A4 B6 B2 c4 | d2 c2 B4 A4 A12 | d2 c2 B4 A4 G12 | z24 | z24 | z24 | z24 | %12
w: ter, re- so- nent|re- so- nent or- ga- na|dul- * * ci- ter|dul- * * ci- ter.|||||
 z24 | z24 | z24 | z24 |[M:9/2] z24 z12 |[M:4/2] z2 B2 A3 G A4 A4 | cccc c3 B/A/ B3 B B4 | %19
w: |||||Au- di- te gen- tes|au- ri- bus per- ci- pi- te po- pu- li,|
 z2 ee e3 d/c/ d4 d2 ee | e3 e e3 d de fe d4 | c8 z2 dd d2 dc | d4 d4 z ddd d3 ^c | %23
w: et at- ten- di- te om- nes mi- ra-|bi- li\-a * de o- * re * me-|o; Mag- nus Do- mi- nus|no- ster, et mag- na vir- tus|
 d4 d4 z ddd d2 de | c3 B d2 c2 B3 A A4 |[M:6/2] d2 c2 B4 A4 G6 A2 B4 | c4 d4 e4 f6 e2 d4 | %27
w: e- jus, et sa- pi- en- ti- ze|e- jus non est nu- me- rus.|So- * * nent Ci- tha- ræ,|pul- sen- tur tym- pa- na,|
 e6 d2 c4 d6 c2 B4 | A6 B2 c4 (f2 e2) d4 c4 | c12 E6 E2 ^F4 | ^G6 G2 A4 B6 B2 c4 | %31
w: re- so- nent re- so- nent|or- ga- na dul- * * ci-|ter, re- so- nent|re- so- nent or- ga- na|
 d2 c2 B4 A4 A12 | d2 c2 B4 A4 G12 | z24 | z24 | z24 | z24 | z24 | z24 | z24 | z24 | %41
w: dul- * * ci- ter|dul- * * ci- ter.|||||||||
[M:9/2] z24 z12 |[M:4/2] z2 z d B2 AG G>A FG/F/ E>F GA/B/ | c2 A/B/c/A/ Bcde/d/ A/B/c/B/AG G2 z d | %44
w: |Lau- da- te lau- da- * * * * * * * * *|* te * * * Do- * * * * * * * * * mi- num, Can-|
 B2 AG G>A FG/F/ E>F GA/B/ c/d/c/B/ A/B/c/d/ | Bc de A/B/c/B/ A2 G2 z d BB z e | %46
w: ta te can- ta- * * * * * * * * * * * * * * * * *|* * te * e- * * * * i Can- ta- te can-|
 cc f2 dd e3 c d3 B c2 | z2 dc B2 cB A4 G2 z G | AABB c2 dc B4 A>d Bc/d/ | %49
w: ta- te e- i can- ta- te can- ti- cum|can- * * ti- cum no- vum an-|nun- ci- a- te o- pe- ra e- jus, et di- * *|
 e/d/c/B<AG/ G>d Bc/d/ e/d/c/B<AG/ G4 | z2 dd d2 d^c d4 d4 | z ddd d3 ^c d4 d4 | %52
w: * * * * * ci- te et di- * * * * * * * ci- te:|Mag- nus Do- mi- nus no- ster|et mag- na vir- tus e- jus|
 z ddd d2 de c3 B d2 c2 |[M:4/4] B3 A A4 |[M:6/2] d2 c2 B4 A4 G6 A2 B4 | c4 d4 e4 f6 e2 d4 | %56
w: et sa- pi- en- ti- ze e- jus non est|nu- me- rus|So- * * nent Ci- tha- ræ,|pul- sen- tur tym- pa- na,|
 e6 d2 c4 d6 c2 B4 | A6 B2 c4 (f2 e2) d4 c4 | c12 E6 E2 ^F4 | ^G6 G2 A4 B6 B2 c4 | %60
w: re- so- nent re- so- nent|or- ga- na dul- * * ci-|ter, re- so- nent|re- so- nent or- ga- na|
 d2 c2 B4 A4 A12 | d2 c2 B4 A4 G12 | z24 | z24 | z24 | z24 | z24 | z24 | z24 | z24 | %70
w: dul- * * ci- ter|dul- * * ci- ter.|||||||||
[M:9/2] z24 z12 |[M:6/2] d2 c2 B4 A4 G4 G4 B4 | c2 d2 e2 f2 (d2 e2) c4 c4 d4 | %73
w: |Ju- bi- le- mus er- go et|e- * * * xul- * te- mus in|
 d6 e2 ^c2 c2 d4 B4 e4 | e6 ^f2 ^d4 e6 e2 e4 | z4 z4 e4 d6 c2 B4 | e4 c4 B4 B8 A4 | A12 G4 G4 G4 | %78
w: tym- pa- no et Cho- ro, in|chor- dis et or- ga- no,|in cym- ba- lis|be- ne so- nan- ti-|bus; Can- te- mus|
[M:9/2] G4 G4 A4 A12 G12 |[M:4/2] z2 dd d2 d^c d4 d4 | z ddd d3 c d4 d4 | z ddd d2 de c3 B d2 c2 | %82
w: om- nes can- te- mus:|Mag- nus Do- mi- nus no- ster,|et mag- na vir- tus e- jus|et sa- pi- en- ti- æ e- jus non est|
 B3 A A4 z ccc c2 cd | _B3 A c2 B2 A6 G2 | G16 |] %85
w: nu- me- rus, et sa- pi- en- ti- æ|e- jus non est nu- me-|rus.|
V:4
 G,,4 B,,4 D,4 G,8 G,4 | F,8 E,4 D,6 C,2 B,,4 | C,6 B,,2 A,,4 B,,6 A,,2 G,,4 | %3
 D,8 E,4 F,4 G,4 G,4 | C,12 C,8 A,,4 | E,8 ^F,4 ^G,8 A,4 | F,4 D,4 E,4 A,,12 | B,,4 C,4 D,4 G,,12 | %8
 G,,2 A,,2 B,,4 D,4 G,,8 G,4 | E,4 F,4 G,4 C,6 B,,2 A,,4 | C,4 D,4 E,4 A,,8 A,,4 | %11
 D,2 C,2 B,,4 A,,4 G,,6 A,,2 B,,4 | C,6 D,2 E,4 F,6 G,2 A,4 | _B,4 G,4 A,4 D,4 E,4 ^F,4 | %14
 G,4 A,4 B,4 C,4 D,4 E,4 | A,,8 A,,4 D,6 E,2 ^F,4 |[M:9/2] G,8 B,,4 C,4 D,8 G,,12 | %17
[M:4/2] G,4 E,4 D,8 | A,,4 F,,4 E,,8 | C,4 A,,4 G,,8 | ^G,,4 A,,2 G,,2 F,,2 E,,2 F,,2 G,,2 | %21
 C,8 D,4 E,4 | D,8 D,4 E,4 | D,8 D,8 | A,,2 G,,2 F,,2 D,,2 E,,4 A,,4 | %25
[M:6/2] G,,4 B,,4 D,4 G,8 G,4 | F,8 E,4 D,6 C,2 B,,4 | C,6 B,,2 A,,4 B,,6 A,,2 G,,4 | %28
 D,8 E,4 F,4 G,8 | C,12 C,8 A,,4 | E,8 ^F,4 ^G,8 A,4 | F,4 D,4 E,4 A,,12 | B,,4 C,4 D,4 G,,12 | %33
 G,,2 A,,2 B,,4 D,4 G,,8 G,4 | E,4 F,4 G,4 C,6 B,,2 A,,4 | C,4 D,4 E,4 A,,8 A,,4 | %36
 D,2 C,2 B,,4 A,,4 G,,6 A,,2 B,,4 | C,6 D,2 E,4 F,6 G,2 A,4 | _B,4 G,4 A,4 D,4 E,4 ^F,4 | %39
 G,4 A,4 B,4 C,4 D,4 E,4 | A,,8 A,,4 D,6 E,2 ^F,4 |[M:9/2] G,8 B,,4 C,4 D,8 G,,12 | %42
[M:4/2] G,2 ^F,2 G,2 F,2 E,2 D,2 C,2 B,,2 | A,,2 D,2 G,,2 B,,2 C,2 D,2 G,2 ^F,2 | %44
 G,2 F,2 E,2 D,2 C,2 B,,2 A,,2 D,2 | G,,2 B,,2 C,2 D,2 G,2 ^F,2 G,2 ^G,2 | %46
 A,2 F,2 _B,2 G,2 A,2 ^F,2 G,2 E,2 | F,2 D,2 E,2 C,2 D,4 G,,2 E,2 | %48
 ^F,2 ^G,2 A,2 F,2 D,2 E,2 A,,2 B,,2 | C,2 D,2 G,,2 B,,2 C,2 D,2 G,,4 | D,4 E,4 D,8 | D,4 E,4 D,8 | %52
 D,8 A,,2 G,,2 F,,2 D,,2 |[M:4/4] E,,4 A,,4 |[M:6/2] G,,4 B,,4 D,4 G,8 G,4 | F,8 E,4 D,6 C,2 B,,4 | %56
 C,6 B,,2 A,,4 B,,6 A,,2 G,,4 | D,8 E,4 F,4 G,8 | C,12 C,8 A,,4 | E,8 ^F,4 ^G,8 A,4 | %60
 F,4 D,4 E,4 A,,12 | B,,4 C,4 D,4 G,,12 | G,,2 A,,2 B,,4 D,4 G,,8 G,4 | E,4 F,4 G,4 C,6 B,,2 A,,4 | %64
 C,4 D,4 E,4 A,,8 A,,4 | D,2 C,2 B,,4 A,,4 G,,6 A,,2 B,,4 | C,6 D,2 E,4 F,6 G,2 A,4 | %67
 _B,4 G,4 A,4 D,4 E,4 ^F,4 | G,4 A,4 B,4 C,4 D,4 E,4 | A,,8 A,,4 D,6 E,2 ^F,4 | %70
[M:9/2] G,8 B,,4 C,4 D,8 G,,12 |[M:6/2] G,,4 B,,4 D,4 G,,8 G,4 | E,4 C,4 G,4 C,8 B,,4 | %73
 G,,4 A,,8 D,8 C,4 | A,,4 B,,8 E,8 E,4 | C,8 C,4 G,,8 G,4 | ^G,4 A,4 F,4 D,4 E,8 | %77
 A,,12 B,,4 C,4 D,4 |[M:9/2] E,4 B,,4 C,4 D,12 G,,12 |[M:4/2] D,4 E,4 D,8 | D,4 E,4 D,8 | %81
 D,8 A,,2 G,,2 F,,2 D,,2 | E,,4 A,,4 F,,8 | G,,4 _E,2 C,2 D,8 | G,,16 |] %85

